src/components/Icon/assets/typography.svg

<svg width="24" height="24" viewBox="0 0 24 24" fill="none" xmlns="http://www.w3.org/2000/svg">
<path fill-rule="evenodd" clip-rule="evenodd" d="M3.00024 3.00009V8.00009H5.00024V6.00009C5.00024 5.44709 5.44824 5.00009 6.00024 5.00009H9.00024C9.55224 5.00009 10.0002 5.44709 10.0002 6.00009V18.0001C10.0002 18.5531 9.55224 19.0001 9.00024 19.0001H7.00024V21.0001H17.0002V19.0001H15.0002C14.4482 19.0001 14.0002 18.5531 14.0002 18.0001V6.00009C14.0002 5.44709 14.4482 5.00009 15.0002 5.00009H18.0002C18.5522 5.00009 19.0002 5.44709 19.0002 6.00009V8.00009H21.0002V3.00009H3.00024Z" fill="#65676A"/>
</svg>

<svg xmlns="http://www.w3.org/2000/svg" width="24" height="24" viewBox="0 0 24 24">
    <path fill="#65676A" fill-rule="evenodd" d="M3 3v5h2V6c0-.553.448-1 1-1h3c.552 0 1 .447 1 1v12c0 .553-.448 1-1 1H7v2h10v-2h-2c-.552 0-1-.447-1-1V6c0-.553.448-1 1-1h3c.552 0 1 .447 1 1v2h2V3H3z"/>
</svg>
